X: 40991
T: Trip To Durrow, The
R: reel
M: 4/4
K: Dmajor
|:D>A|D>CD<F A>D (3FGA|d2 (3fed B>^AB>c|d>BF>B d>B (3EFG|(3AAA D>E F>E (3EEE|
D>A (3DEF A2 (3FGA|d2 e>d B2 B>c|d>B (3FGA d>BA>F|A>DE>G F<D:|
|:D>c|d>cd>e f>ef>g|a>fd>f g>fe>d|(3Bcd e>f g>eB>e|g>eb>e g>fe>f|
d2 d>e f2 f>g|a>fd<f g>fe<d|(3Bcd e>f g2 (3bag|f>de>c d>cd>e|
f>de>c d2- d>e|f>d (3fed B2- B>c|d>BF<B d2 F>B|A<FD>E F<E (3GFE|
D2- D>F A>DF>A|d>c (3fed B2- B>c|(3ded B>A d>BA<F|A>FE<G F<D:|

